!!!!SEGMENT: pl-wn--mus-2041-5_zelenski-wladyslaw--te-rozkwitle-ciche-drzewa.krn
!!!cenid: 18xx:3647
!!!COM: Żeleński, Władysław
!!!COM-rismID: pe41024455
!!!CDT:
!!!CNT:
!!!OTL: Te rozkwitłe ciche drzewa
!!!PDT:
!!!AGN:
!!!SMS-siglum: PL-Wn
!!!SMS-shelfmark: Mus.2041/5
!!!SMS-shelfwork: W
!!!SMS-variant:
!!!SMS-altvar:
!!!NIFC-rismSourceID:
!!!NIFC-islandoraID:
!!!URL-pdf-islandora:
!!!URL-scan: https://polona.pl/item/te-rozkwitle-ciche-drzewa-piesn,NjU5MjI0NzQ/4/#info:metadata @EN{Scan on Polona} @PL{Skany w portalu Polona}
!!!ONB-nifc:
!!!OMD: Andante tranquillo.
!!!AIN: 1 piano 1 vox
!!!key: C
**kern	**kern	**dynam	**kern	**text	**text	**dynam
*part2	*part2	*part2	*part1	*part1	*part1	*part1
*staff3	*staff2	*	*staff1	*staff1	*staff1	*
*I"Fortepian.	*I"Fortepian.	*	*I"Spiew.	*	*	*
*Ipiano	*Ipiano	*	*Ivox	*	*	*
*ICklav	*ICklav	*	*ICvox	*	*	*
*clefF4	*clefG2	*	*clefG2	*	*	*
*k[]	*k[]	*	*k[]	*	*	*
*C:	*C:	*	*C:	*	*	*
*M3/4	*M3/4	*	*M3/4	*	*	*
=1	=1	=1	=1	=1	=1	=1
*Xtuplet	*	*	*	*	*	*
!LO:TX:b:t=con pedale	!	!	!	!	!	!
(>12CC/L	4c:/ 4e: 4g: 4cc:	pp	2.r	.	.	.
12GG/	.	.	.	.	.	.
12AA/J	.	.	.	.	.	.
12BB\L	4G:/ 4c: 4e: 4g:	.	.	.	.	.
12C\	.	.	.	.	.	.
12D\J	.	.	.	.	.	.
8E\)	4r	.	.	.	.	.
8r	.	.	.	.	.	.
=2	=2	=2	=2	=2	=2	=2
(>12CC/L	4c:/ 4e: 4g: 4cc:	.	4r	.	.	.
12GG/	.	.	.	.	.	.
12AA/J	.	.	.	.	.	.
12BB\L	4G:/ 4c: 4e: 4g:	.	4r	.	.	.
12C\	.	.	.	.	.	.
12D\J	.	.	.	.	.	.
8E\)	4r	.	8g/	Te	.	.
8r	.	.	8g/	roz-	.	.
=3	=3	=3	=3	=3	=3	=3
(>12CC/L	4c:/ 4e: 4g: 4cc:	.	4.cc\	-kwit-	.	.
12GG/	.	.	.	.	.	.
12AA/J	.	.	.	.	.	.
12BB\L	4G:/ 4c: 4e: 4g:	.	.	.	.	.
12C\	.	.	.	.	.	.
.	.	.	8g/	-łe	.	.
12D\J	.	.	.	.	.	.
8E\)	4r	.	8b/	ci-	.	.
8r	.	.	8e/	-che	.	.
=4	=4	=4	=4	=4	=4	=4
(>12CC/L	4c:/ 4e: 4g: 4cc:	.	4a/	drze-	.	.
12GG/	.	.	.	.	.	.
12AA/J	.	.	.	.	.	.
12BB\L	4G:/ 4c: 4e: 4g:	.	4g/	-wa	.	.
12C\	.	.	.	.	.	.
12D\J	.	.	.	.	.	.
8E\)	4r	.	8g/	U-	.	.
8r	.	.	8f/	-pa-	.	.
!!LO:LB:g=original
=5	=5	=5	=5	=5	=5	=5
(>12CC\L	4e:\ 4g: 4cc: 4ee:	.	8e/	-ja-	.	.
12B\	.	.	.	.	.	.
.	.	.	8f/	-ją	.	.
12A\J	.	.	.	.	.	.
12G\L	4c:/ 4e: 4g: 4cc:	.	(>4g/	słod-	.	.
12E\	.	.	.	.	.	.
12D\J	.	.	.	.	.	.
8C\)	4r	.	8a\)	.	.	.
8r	.	.	8cc\	-ką	.	.
=6	=6	=6	=6	=6	=6	=6
!	!	!	!	!	!	!LO:HP:a
(>12CC\L	4d:/ 4g: 4b: 4dd:	.	4dd\	wo-	.	>
12f\	.	.	.	.	.	.
12e\J	.	.	.	.	.	.
12d\L	4g:\ 4b: 4dd: 4gg:	.	4g/	-nią;	.	]
12B\	.	.	.	.	.	.
12A\J	.	.	.	.	.	.
!	!	!	!	!	!	!LO:DY:a
8G\)	4r	.	8g/	Wo-	.	p
8r	.	.	8g/	-dy	.	.
=7	=7	=7	=7	=7	=7	=7
(>12CC/L	4e:\ 4g: 4cc: 4ee:	.	4.cc\	szep-	.	.
12GG/	.	.	.	.	.	.
12AA/J	.	.	.	.	.	.
12BB\L	4c:/ 4e: 4g: 4cc:	.	.	.	.	.
12C\	.	.	.	.	.	.
.	.	.	8g/	-cą,	.	.
12D\J	.	.	.	.	.	.
8E\)	4r	.	8b/	sło-	.	.
8r	.	.	8e/	-wik	.	.
=8	=8	=8	=8	=8	=8	=8
(>12CC/L	4c:/ 4e: 4g: 4cc:	.	4a\	spie-	.	.
12GG/	.	.	.	.	.	.
12AA/J	.	.	.	.	.	.
12BB\L	4G:/ 4c: 4e: 4g:	.	4g\	-wa,	.	.
12C\	.	.	.	.	.	.
12D\J	.	.	.	.	.	.
8E\)	4r	.	8g/	I	.	.
8r	.	.	8g/	ko-	.	.
!!LO:LB:g=original
=9	=9	=9	=9	=9	=9	=9
(>12EE/L	4G#X:/ 4B: 4e: 4g#X:	.	8g#X/	-ni-	.	.
12BB/	.	.	.	.	.	.
.	.	.	8a/	-ki	.	.
12C#X/J	.	.	.	.	.	.
12D#X\L	4B:/ 4e: 4g#: 4b:	.	4.b\	ci-	.	.
12E\	.	.	.	.	.	.
12F#X\J	.	.	.	.	.	.
!	!LO:TUP:a:problem=klamra łukowa	!	!	!	!	!
8G#X\)	12r	.	.	.	.	.
.	12B/L	.	.	.	.	.
8r	.	.	8b\	-cho	.	.
.	12c#X/J	.	.	.	.	.
=10	=10	=10	=10	=10	=10	=10
*^	*^	*	*	*	*	*
*	*	*Xtuplet	*	*	*	*	*	*
!	!	!	!	!LO:HP:b	!	!	!	!LO:HP:a
4r	4ryy	12d#X/L	4ryy	<	[>2.b\	dzwo-	.	<[
.	.	12e/	.	.	.	.	.	.
.	.	12f#X/J	.	.	.	.	.	.
*clefG2	*	*	*	*	*	*	*	*
!LO:SIC:v:s=(>4c#/	!LO:SIC:v:s=2c#\	!	!	!	!	!	!	!
(>4c/	2c\	12g#X/L	12ryy	.	.	.	.	.
.	.	12b/	[<6b\	.	.	.	.	.
.	.	12cc#X/J	.	.	.	.	.	.
4a/	.	12dd#X/L	4b\]	.	.	.	.	.
.	.	12ee/	.	.	.	.	.	.
.	.	12ff#X/J	.	[[	.	.	.	.
*v	*v	*	*	*	*	*	*	*
*	*v	*v	*	*	*	*	*
=11	=11	=11	=11	=11	=11	=11
*ped	*	*	*	*	*	*
!	!	!	!	!	!	!LO:HP:a
8e/) 8g#X	8b'\L 8ee	pp	4b\]	.	.	>
8r	8bb'\	.	.	.	.	.
4r	8eee'\	.	4e/	-nią.	.	]
.	8bb'\	.	.	.	.	.
8r	8ee'\J	.	4r	.	.	.
!LO:TX:t=P:problem=cross-measure beam	!	!	!	!	!	!
8b/L	8r	.	.	.	.	.
=12	=12	=12	=12	=12	=12	=12
8e/J	8r	.	4r	.	.	.
*Xped	*	*	*	*	*	*
8r	8B'/L	.	.	.	.	.
4r	8E'/J	.	4r	.	.	.
.	8r	.	.	.	.	.
*clefF4	*	*	*	*	*	*
!	!	!	!LO:TX:a:i:t=poco espressivo	!	!	!
4DD/ 4D	4G#X/ 4B 4e	p	8e/	Cze-	.	.
.	.	.	8e/	-muż	.	.
!!LO:PB:g=original
=13	=13	=13	=13	=13	=13	=13
!	!	!	!LO:TX:a:i:t=poco espressivo.	!	!	!
2CC#X/ 2C#X	2G/ 2B-X 2e	.	4.g/	za-	.	.
.	.	.	8g/	-du-	.	.
4DD/ 4D	4G/ 4B- 4d	.	8g/	-ma-	.	.
.	.	.	8g/	-ny	.	.
=14	=14	=14	=14	=14	=14	=14
*	*^	*	*	*	*	*
2EE/ 2E	(4d/	2G\ 2B-X	.	4g/	sto-	.	.
.	4c/)	.	.	4c/	-ję,	.	.
4DD/ 4D	4G/ 4B- 4d	4ryy	.	8r	.	.	.
.	.	.	.	8g/	I	.	.
=15	=15	=15	=15	=15	=15	=15	=15
!	!LO:SIC:v:n=2:s=2B-/	!	!	!	!	!	!
2CC/ 2C	2B/ 2g	4d\	.	8b-X\	wios-	.	.
.	.	.	.	8a\	-ną	.	.
.	.	4e\	.	4g/	ślę	.	.
!	!LO:SIC:v:n=3:s=4B-/	!	!	!	!	!	!
4ryy	4B/ 4c 4g	4ryy	.	8.g/	nie	.	.
.	.	.	.	16cc\	we-	.	.
*	*v	*v	*	*	*	*	*
=16	=16	=16	=16	=16	=16	=16
2FFF/ 2FF	2A/ 2e-X 2a	.	4cc\	-se-	.	.
.	.	.	4f/	-lę?	.	.
4FF/ 4F	4c/ 4e- 4a	.	8a/	Bo	.	.
.	.	.	8a/	sie-	.	.
!!LO:LB:g=original
=17	=17	=17	=17	=17	=17	=17
!	!	!LO:HP:b	!	!	!	!LO:HP:a
2FF#X/ 2F#X	2c/ 2e-X 2a	<	4.a/	-ro-	.	<
.	.	.	8a/	-ce	.	.
4GG\ 4G	4c/ 4e- 4g	.	8g/	ser-	.	.
.	.	.	8g/	-ce	.	.
=18	=18	=18	=18	=18	=18	=18
*	*^	*	*	*	*	*
2AA\ 2A	(>4g/	2c\ 2d	.	4g/	mo-	.	.
.	4f#X/)	.	[	4f#X/	-je,	.	[
(<4AAA/ 4AA	4f#/	4c\ 4d	.	8f#/	Z_kim-	.	.
!	!	!	!	!	!	!	!LO:HP:a:t=poco cresc.
.	.	.	.	8a/	-że	.	<
=19	=19	=19	=19	=19	=19	=19	=19
2GGG#X/) 2GG#X	2d/ 2fn	4c\	<	4.dd\	wios-	.	.
.	.	4B\	.	.	.	.	.
.	.	.	.	8cc\	-nę	.	.
4FFF/ 4FF	8.b/L	4B\ 4d	.	8.b\	tę	.	.
.	16a/Jk	.	.	16dd\	po-	.	.
=20	=20	=20	=20	=20	=20	=20	=20
[4EEE/ [4EE	(>4a/	2B\ 2d	.	4dd\	-dzie-	.	.
12EEE/L] 12EE]	4g#X/)	.	.	4e/	-lę?	.	.
(<12EE/	.	.	.	.	.	.	.
12FF#X/J	.	.	.	.	.	.	.
!	!	!	!	!	!	!	!LO:DY:a
12GG#X/L	4E/ 4B 4d 4e	4ryy	.	8e/	Ty-	.	p
12AA/	.	.	.	.	.	.	.
.	.	.	.	8e/	-lem	.	.
12BB/J)	.	.	.	.	.	.	.
*	*v	*v	*	*	*	*	*
!!LO:LB:g=original
=21	=21	=21	=21	=21	=21	=21
2AA/	2E/ 2c 2e	.	4.e/	u-	.	.
.	.	.	8e/	-czuł,	.	.
(<4GG/	4E/ 4B 4e	.	8e/	cier-	.	.
.	.	.	8e/	-piał	.	.
=22	=22	=22	=22	=22	=22	=22
*	*^	*	*	*	*	*
2FF#X/)	(>4e/	2A\ 2c	.	4a\	ty-	.	.
.	4d#X/)	.	.	4d#X/	-le,	.	.
((4FFF#X/ 4FF#	4A/ 4d# 4a	4ryy	.	8r	.	.	.
.	.	.	.	8cc\	Lecz	.	.
=23	=23	=23	=23	=23	=23	=23	=23
*	*	*	*	*^	*	*	*
!	!	!	!LO:HP:b	!	!	!	!	!LO:HP:a
2.GGG/)) 2.GG	(>4d#X/ 4a	2.B\	<	8b\	4ryy	nie	.	<
.	.	.	.	8a\	.	pow-	.	.
.	8e/L) 8g	.	.	8g/L	8g\	-ró-	.	.
!	!LO:SIC:v:n=1:s=8f#	!	!	!	!	!	!	!
.	(>8d#/ 8f	.	.	8f#X/J	8ryy	-[[cę]]-	.	.
.	8e/ 8g	.	.	8g/	4ryy	-cę	[[do]]	.
!	!LO:SIC:v:n=2:s=8f#/J)	!	!	!	!	!	!	!
.	8f/J) 8a	.	.	8a/	.	do	.	.
*	*	*	*	*v	*v	*	*	*
=24	=24	=24	=24	=24	=24	=24	=24
!	!	!LO:SIC:v:s=(<4f#\	!	!	!	!	!
2GGG/ 2GG	2B/ 2b	(<4f\	[	4b\	do-	.	[
.	.	4e\)	.	4e/	-mu,	.	.
4CC/ 4C	8e/L	4ryy	.	8e/	O-	.	.
.	8f#X/J	.	.	8f#X/	-po-	.	.
!!LO:LB:g=original
=25	=25	=25	=25	=25	=25	=25	=25
!	!	!	!LO:HP:b	!LO:TX:a:i:t=espress.	!	!	!
(4CC#X/ 4C#X	[2.g/	(4A#X\	<	4.g/	-wia-	.	.
4DD/ 4D	.	4B\	.	.	.	.	.
!	!	!	!	!LO:TX:a:t=f	!	!	!
.	.	.	.	8f#X/	-dać	.	.
!	!	!LO:SIC:v:s=4c#\	!	!	!	!	!
!	!	!LO:TX:t=P:SIC?:problem	!	!	!	!	!
4EE-X/ 4E-X	.	4c\	.	8.g/	nie	.	.
.	.	.	.	16b/	mam	.	.
*	*v	*v	*	*	*	*	*
=26	=26	=26	=26	=26	=26	=26
2DD/) 2D	2B/) 2g]	[	4b\	ko-	.	.
.	.	.	4g/	-mus,	.	.
(<4DD/ 4D	4B/ 4g	.	8g/	Zamie-	.	.
.	.	.	8b/	-szczę	.	.
=27	=27	=27	=27	=27	=27	=27
*	*^	*	*	*	*	*
!LO:TX:t=P:problem=korekta taktu	!	!	!	!	!	!	!
2CC#X/ 2C#X	2.A/ 2.a	4e\	.	8a/L	po-	(po-	.
.	.	.	.	8g/J	.	-wieść	.
!	!	!	!LO:HP:b	!	!	!	!LO:HP:a
.	.	8d\L	>	8f#X/L	-wieść	na)	>
.	.	8e\	.	8e/J	.	.	.
4CCn/yy 4Cnyy	.	8.f#X\	.	8.d#X/	na	.	.
.	.	16e\Jk	.	16e/	mo-	.	.
=28	=28	=28	=28	=28	=28	=28	=28
!LO:TX:t=P:korekta:problem	!	!	!	!	!	!	!
[4DD/) [4BB	(4g/	[4B\ [4d#X	.	4g/	-gi-	.	.
*	*tuplet	*	*	*	*	*	*
!	!LO:SIC:v:s=12f#/)	!	!	!	!	!	!
8DD/] 8BB]	12f/)	12B\] 12d#X]	]	4f#X/	-le.	.	]
.	12r	12ryy	.	.	.	.	.
8ryy	.	.	.	.	.	.	.
!	!LO:SIC:v:s=(>12f#/	!	!	!	!	!	!
.	(>12f/	12ryy	.	.	.	.	.
*	*Xtuplet	*	*	*	*	*	*
!LO:TX:a:t=dolce	!	!	!	!	!	!	!
(4A\ 4c	12a/L	4ryy	.	4r	.	.	.
.	12g/	.	.	.	.	.	.
!	!LO:SIC:v:s=12f#/J)	!	!	!	!	!	!
.	12f/J)	.	.	.	.	.	.
*	*v	*v	*	*	*	*	*
!!LO:PB:g=original
=29	=29	=29	=29	=29	=29	=29
*^	*	*	*	*	*	*
(2d/)	2.G\	(>12e/L	.	2.r	.	.	.
.	.	12f#X/	.	.	.	.	.
.	.	12g/J	.	.	.	.	.
.	.	12f#/L	.	.	.	.	.
.	.	12e/	.	.	.	.	.
.	.	12b/J	.	.	.	.	.
4B-X/)	.	12e/L	.	.	.	.	.
.	.	12d/	.	.	.	.	.
.	.	12c#X/J	.	.	.	.	.
=30	=30	=30	=30	=30	=30	=30	=30
!	!	!	!LO:HP:b	!	!	!	!
2A/	2F\	12d/L	<	2.r	.	.	.
.	.	12e/	.	.	.	.	.
!	!	!LO:SIC:v:s=12fn/J	!	!	!	!	!
.	.	12f#X/J	.	.	.	.	.
.	.	12e/L	.	.	.	.	.
.	.	12d/	.	.	.	.	.
.	.	12a/J	.	.	.	.	.
4F#X/	4E-X\	12c/L	.	.	.	.	.
.	.	12B/	.	.	.	.	.
.	.	12A/J	[[	.	.	.	.
=31	=31	=31	=31	=31	=31	=31	=31
!	!	!	!LO:HP:b	!	!	!	!
(4Fn/	(4D\	12c/L)	>	2.r	.	.	.
.	.	(>12B/	.	.	.	.	.
.	.	12A/J	.	.	.	.	.
8D/)	8GG\)	12c/L	.	.	.	.	.
.	.	12B/	.	.	.	.	.
8r	8ryy	.	.	.	.	.	.
.	.	12A/J	.	.	.	.	.
4ryy	4ryy	12G/L)	.	.	.	.	.
.	.	(>12F/	.	.	.	.	.
.	.	12E/J)	]]	.	.	.	.
*v	*v	*	*	*	*	*	*
=32	=32	=32	=32	=32	=32	=32
12CC/L	4c:/ 4e: 4g: 4cc:	pp	4r	.	.	.
(>12GG/	.	.	.	.	.	.
12AA/J	.	.	.	.	.	.
12BB/L	4G:/ 4c: 4e: 4g:	.	4r	.	.	.
12C/	.	.	.	.	.	.
12D/J	.	.	.	.	.	.
!	!	!	!LO:TX:a:t=dolce	!	!	!
8E\)	4r	.	8g/	Mi-	.	.
8r	.	.	8g/	-ja	.	.
!!LO:LB:g=original
=33	=33	=33	=33	=33	=33	=33
(>12CC/L	4c:/ 4e: 4g: 4cc:	.	4.cc\	wios-	.	.
12GG/	.	.	.	.	.	.
12AA/J	.	.	.	.	.	.
12BB\L	4G:/ 4c: 4e: 4g:	.	.	.	.	.
12C\	.	.	.	.	.	.
.	.	.	8g/	-na,	.	.
12D\J)	.	.	.	.	.	.
8E\	4r	.	8b/	mi-	.	.
8r	.	.	8e/	-ja	.	.
=34	=34	=34	=34	=34	=34	=34
(>12CC/L	4c:/ 4e: 4g: 4cc:	.	4a/	zi-	.	.
12GG/	.	.	.	.	.	.
12AA/J	.	.	.	.	.	.
12BB\L	4G:/ 4c: 4e: 4g:	.	4g/	-ma,	.	.
12C\	.	.	.	.	.	.
12D\J)	.	.	.	.	.	.
8E\	4r	.	8g/	Mi-	.	.
8r	.	.	8f/	-ja	.	.
=35	=35	=35	=35	=35	=35	=35
!	!	!	!	!	!	!LO:HP:a
(>12CC\L	4e:\ 4g: 4cc: 4ee:	.	8e/L	po-	.	<
12B\	.	.	.	.	.	.
.	.	.	8f/J	.	.	.
12A\J	.	.	.	.	.	.
12G\L	4c:/ 4e: 4g: 4cc:	.	4g/	-go-	.	.
12E\	.	.	.	.	.	.
12D\J	.	.	.	.	.	.
8C\)	4r	.	8a\	-da	.	.
8r	.	.	8cc\	i	.	[[
=36	=36	=36	=36	=36	=36	=36
12CC\L	4d:/ 4g: 4b: 4dd:	.	4dd\	sło-	.	.
12f\	.	.	.	.	.	.
12e\J	.	.	.	.	.	.
12d\L	4g:\ 4b: 4dd: 4gg:	.	4g/	-ta,	.	.
12B\	.	.	.	.	.	.
12A\J	.	.	.	.	.	.
8G\	4r	.	8g/	Nie	.	.
8r	.	.	8g/	prze-	.	.
!!LO:LB:g=original
=37	=37	=37	=37	=37	=37	=37
(12CC/L	4e:/ 4g: 4cc: 4ee:	.	4.cc\	-mie-	.	.
12GG/	.	.	.	.	.	.
12AA/J	.	.	.	.	.	.
12BB\L	4c:/ 4e: 4g: 4cc:	.	.	.	.	.
12C\	.	.	.	.	.	.
.	.	.	8g/	-nie	.	.
12D\J	.	.	.	.	.	.
8E\)	4r	.	8b/	żal	.	.
8r	.	.	8e/	piel-	.	.
=38	=38	=38	=38	=38	=38	=38
(>12CC/L	4c:/ 4e: 4g: 4cc:	.	4a\	-grzy-	.	.
12GG/	.	.	.	.	.	.
12AA/J	.	.	.	.	.	.
12BB\L	4G:/ 4c: 4e: 4g:	.	4g/	-ma,	.	.
12C\	.	.	.	.	.	.
12D\J	.	.	.	.	.	.
8E\)	4r	.	8g/	Nie	.	.
8r	.	.	8g/	prze-	.	.
=39	=39	=39	=39	=39	=39	=39
!	!	!	!LO:TX:a:t=sempre più espress.	!	!	!
(>12BBB\L	4G#X:/ 4B: 4e: 4g#X:	.	8g#X/	-mi-	.	.
12G#X\	.	.	.	.	.	.
.	.	.	8a/	-nie	.	.
12F#X\J	.	.	.	.	.	.
12E\L	4B:/ 4e: 4g#: 4b:	.	4.b\	żal	.	.
12D#X\	.	.	.	.	.	.
12C#X\J	.	.	.	.	.	.
!	!	!LO:HP:t=poco cresc.	!	!	!	!
8BB/)	4r	<	.	.	.	.
8r	.	.	8b\	piel-	.	.
=40	=40	=40	=40	=40	=40	=40
(12DD\L	4B/ 4f 4a-X 4b	.	4b\	-grzy-	.	.
12A-X\	.	.	.	.	.	.
12G\J	.	.	.	.	.	.
12F#X\L	4r	.	4b\	-ma,	.	.
12E-X\	.	.	.	.	.	.
12D\J	.	.	.	.	.	.
8C\)	4c:/ 4f: 4a-: 4cc:	.	8cc\	Bo	.	.
8r	.	.	8cc\	on	.	.
!!LO:LB:g=original
=41	=41	=41	=41	=41	=41	=41
12GGG\L	4d:/ 4f: 4g: 4dd:	.	4dd\	wdo-	.	.
(>12f\	.	.	.	.	.	.
12e-X\J	.	.	.	.	.	.
!	!	!	!	!	!	!LO:HP:a
12d\L	4f'>/ [>4g	.	4g/	-wiec	.	<
12B\	.	.	.	.	.	.
12A-X\J	.	.	.	.	.	.
8G\)	4B'>/ 4f 4g]	.	8g/	i	.	.
8r	.	.	8g/	sie-	.	[[
=42	=42	=42	=42	=42	=42	=42
(>12CC/L	4e-X:/ 4g: 4cc: 4ee-X:	.	8ee-X\L	-ro-	.	.
12C/	.	.	.	.	.	.
.	.	.	8dd\J	.	.	.
12D/J	.	.	.	.	.	.
!	!	!	!	!	!	!LO:HP:a:t=cresc.
12E-X\L	(>4c'>/ 4e- 4g	.	4cc\	-ta,	.	<
12F\	.	.	.	.	.	.
12G\J	.	.	.	.	.	.
8F\)	4c'>/) 4d 4a-X 4cc	.	8b-X\	Bo	.	.
8r	.	.	8a-X\	on	.	.
=43	=43	=43	=43	=43	=43	=43
(12GG/L	4c:/ 4e-X: 4g: 4cc:	.	4.g/	wdo-	.	.
12C/	.	.	.	.	.	.
12D/J	.	.	.	.	.	.
12E-X\L	(>4c'>/ 4e- 4g	.	.	.	.	.
12F\	.	.	.	.	.	.
.	.	.	8c/	-wiec	.	.
12G\J	.	.	.	.	.	.
8A-X\)	4c'>/) 4d 4f	.	8d/	i	.	.
8r	.	.	8e-X/	sie-	.	.
=44	=44	=44	=44	=44	=44	=44
!	!	!	!	!	!	!LO:HP:a
(12GG\L	4c:/ 4d: 4f: 4cc:	>	2f/	-ro-	.	>
12D\	.	.	.	.	.	.
12E-X\J	.	.	.	.	.	.
12F\L	(>4c'>/ 4d	.	.	.	.	.
12G\	.	.	.	.	.	.
12A-X\J	.	.	.	.	.	.
8G\)	4B'>/) 4f 4g	.	8e-X/L	.	.	.
8r	.	]	8d/J	.	.	]]
!!LO:PB:g=original
=45	=45	=45	=45	=45	=45	=45
(>12CC/L	4c:/ 4e-X: 4g: 4cc:	pp	[2.c/	-ta.	.	.
12GG/	.	.	.	.	.	.
12AA/J	.	.	.	.	.	.
12BB/L	4G:/ 4c: 4e-X: 4g:	.	.	.	.	.
12C/	.	.	.	.	.	.
12D/J	.	.	.	.	.	.
12E-X\L	4r	.	.	.	.	.
12F\	.	.	.	.	.	.
12G\J)	.	.	.	.	.	.
*clefG2	*	*	*	*	*	*
=46	=46	=46	=46	=46	=46	=46
12A-X/L	4cc\ 4ee-X 4aa-X 4ccc	.	8c/]	.	.	.
12c/	.	.	.	.	.	.
.	.	.	8r	.	.	.
12d/J	.	.	.	.	.	.
12e-X/L	4cc\ 4ee-	.	4r	.	.	.
12f/	.	.	.	.	.	.
12g/J	.	.	.	.	.	.
*	*tuplet	*	*	*	*	*
!	!LO:TUP:a:problem=klamra łukowa	!	!	!	!	!LO:DY:a
8a-X\	12r	.	8cc\	Bo	.	p
.	12cc\L	.	.	.	.	.
8r	.	.	8cc\	on	.	.
.	12dd\J	.	.	.	.	.
*clefF4	*	*	*	*	*	*
=47	=47	=47	=47	=47	=47	=47
12C\L	4en:\ 4g: 4cc: 4een:	.	4cc\	wdo-	.	.
12G\	.	.	.	.	.	.
12A\J	.	.	.	.	.	.
12B\L	4e/ 4g	.	4g/	-wiec	.	.
12c\	.	.	.	.	.	.
12d\J	.	.	.	.	.	.
*clefG2	*	*	*	*	*	*
12e/L	4r	.	4r	.	.	.
12f/	.	.	.	.	.	.
12g/J	.	.	.	.	.	.
!!LO:LB:g=original
=48	=48	=48	=48	=48	=48	=48
*	*8va	*	*	*	*	*
(>12a-X\L	4ccc\ 4eee-X 4aaa-X 4cccc	.	4r	.	.	.
12cc\	.	.	.	.	.	.
12dd\J	.	.	.	.	.	.
!LO:SIC:v:s=12ee-\L	!	!	!	!	!	!
12ee\L	4ccc'\ 4eee-	.	4r	.	.	.
12ff\	.	.	.	.	.	.
12gg\J	.	.	.	.	.	.
!	!LO:TUP:a:problem=klamra łukowa	!	!	!	!	!LO:DY:a
8aa-X\)	12r	.	8cc\	I	.	pp
.	12ccc\L	.	.	.	.	.
8r	.	.	8cc\	sie-	.	.
.	12ddd\J	.	.	.	.	.
=49	=49	=49	=49	=49	=49	=49
(>12c/L	4een:\ 4gg: 4ccc: 4eeen:	.	[2.cc\	-ro-	.	.
12g/	.	.	.	.	.	.
12a/J	.	.	.	.	.	.
12b/L	4ee/ 4gg	.	.	.	.	.
12cc/	.	.	.	.	.	.
12dd/J	.	.	.	.	.	.
*	*X8va	*	*	*	*	*
8ee\)	12r	.	.	.	.	.
.	(12gg\L	.	.	.	.	.
8r	.	.	.	.	.	.
.	12aa\J	.	.	.	.	.
=50	=50	=50	=50	=50	=50	=50
*	*Xtuplet	*	*	*	*	*
4r	12bb\L	.	4cc\]	.	.	.
.	12ccc\	.	.	.	.	.
.	12ddd\J	.	.	.	.	.
4r	8eee\)	.	4g/	-ta.	.	.
.	8r	.	.	.	.	.
*clefF4	*	*	*	*	*	*
!LO:TX:t=P:problem=brak klucza basowego	!	!LO:DY:b:rj	!	!	!	!
4C'\ 4G	4c'/ 4e 4g	ppp	4r	.	.	.
=51	=51	=51	=51	=51	=51	=51
2.CC/	2.c/ 2.e 2.g 2.cc	.	2.r	.	.	.
==	==	==	==	==	==	==
*-	*-	*-	*-	*-	*-	*-
!!!system-decoration: s1{(s2,s3)}
!!!RDF**kern: < = below
!!!RDF**kern: > = above
!!!ENC: Andrzej Gręziak
!!!END: 2022-02-16
!!!ENC: Marta Chmielewska
!!!END: 2022-02-17
